!!!COM: Gaspar van Weerbeke
!!!CDT: ~1450-~1517
!!!OTL: Ave mater omnium
!!!AGN: Motet
!!!SCT: Gas0402
!!!SCA: Gas0402
!!!voices: 4
**kern	**text	**kern	**text	**kern	**text	**kern	**text
*part4	*part4	*part3	*part3	*part2	*part2	*part1	*part1
*staff4	*staff4	*staff3	*staff3	*staff2	*staff2	*staff1	*staff1
*I"Bassus	*	*I"Tenor	*	*I"Altus	*	*I"Superius	*
*I'B	*	*I'T	*	*I'A	*	*I'S	*
*clefF4	*	*clefGv2	*	*clefGv2	*	*clefG2	*
*k[b-]	*	*k[b-]	*	*k[b-]	*	*k[b-]	*
*d:	*	*d:	*	*d:	*	*d:	*
*M6/4	*	*M6/4	*	*M6/4	*	*M6/4	*
*met(C3)	*	*met(C3)	*	*met(C3)	*	*met(C3)	*
=1	=1	=1	=1	=1	=1	=1	=1
1.r	.	2G	A-	1.r	.	1.r	.
.	.	4G	-ve	.	.	.	.
.	.	2A	ma-	.	.	.	.
.	.	4B-y	-ter	.	.	.	.
=2	=2	=2	=2	=2	=2	=2	=2
1.r	.	2c	o-	1.r	.	2g	A-
.	.	4B-y	.	.	.	4g	-ve
.	.	4A	.	.	.	2a	ma-
.	.	2d	.	.	.	.	.
.	.	.	.	.	.	4b-y	-ter
=3	=3	=3	=3	=3	=3	=3	=3
1.r	.	4.c	.	1.r	.	2cc	o-
.	.	8B-y	.	.	.	.	.
.	.	4G	.	.	.	4b-y	.
.	.	2F	.	.	.	4a	.
.	.	.	.	.	.	2dd	.
.	.	4G	.	.	.	.	.
=4	=4	=4	=4	=4	=4	=4	=4
2F	A-	4.A	.	1.r	.	4.cc	.
.	.	8B-y	.	.	.	16b-yLL	.
.	.	.	.	.	.	16aJJ	.
4E	-ve	4c	.	.	.	4g	.
4D	ma-	2d	.	.	.	4f	.
8GL	.	.	.	.	.	4b-y	.
8DJ	.	.	.	.	.	.	.
4F	-ter	4c	.	.	.	4a	.
!!LO:LB:g=original
=5	=5	=5	=5	=5	=5	=5	=5
4G	o-	4B-y	.	2r	.	2g	.
2D	-mni-	2A	-mni-	.	.	.	.
.	.	.	.	4r	.	4f#i	-mni-
2.GG	-um,	2.G	-um,	2d	Vi-	2g	-um,
.	.	.	.	4d	-ri	4r	.
=6	=6	=6	=6	=6	=6	=6	=6
*	*	*	*	*	*	*col	*
1.r	.	1.r	.	2.B-y	ad-	2dd	vi-
.	.	.	.	.	.	2dd	-ri
.	.	.	.	4G	.	.	.
.	.	.	.	2A	-iu-	2cc	ad-
*	*	*	*	*	*	*Xcol	*
=7	=7	=7	=7	=7	=7	=7	=7
*	*	*col	*	*	*	*	*
1.r	.	2d	vi-	4D	-to-	4f	-iu-
.	.	.	.	8GL	.	8b-yL	.
.	.	.	.	8F	.	8a	.
.	.	2d	-ri	8G	.	8b-y	.
.	.	.	.	8FJ	.	8aJ	.
.	.	.	.	4D	-ri-	2b-y	-to-
.	.	2c	ad-	2F	-um,	.	.
*	*	*Xcol	*	*	*	*	*
.	.	.	.	.	.	4a	-ri-
=8	=8	=8	=8	=8	=8	=8	=8
*col	*	*	*	*	*	*	*
2D	vi-	4.B-y	-iu-	2r	.	4b-y	-um,
.	.	.	.	.	.	2f	et
.	.	8A	.	.	.	.	.
2D	-ra-	4F	.	4r	.	.	.
.	.	2B-y	-to-	2F	et	4d	vi-
2C	-go	.	.	.	.	2e	-ra-
*Xcol	*	*	*	*	*	*	*
.	.	4A	-ri-	4E	vi-	.	.
!!LO:LB:g=original
=9	=9	=9	=9	=9	=9	=9	=9
*	*	*col	*	*	*	*	*
1.r	.	2B-y	-um,	4.G	-ra-	4d	-go
.	.	.	.	.	.	8gL	.
.	.	.	.	8DL	.	8f	.
.	.	2B-y	et	8E	-go	8g	.
.	.	.	.	8DJ	.	8fJ	.
.	.	.	.	4G	di-	2g	di-
.	.	2A	vi-	2D	-cta	.	.
*	*	*Xcol	*	*	*	*	*
.	.	.	.	.	.	4f	.
=10	=10	=10	=10	=10	=10	=10	=10
*col	*	*	*	*	*	*	*
2BB-y	di-	4.G	-ra-	1.r	.	4g	-cta
.	.	.	.	.	.	2d	E-
.	.	8F	.	.	.	.	.
2BB-y	-cta	4D	-go	.	.	.	.
.	.	2G	di-	.	.	4B-y	.
2AA	.	.	.	.	.	2c	-va
*Xcol	*	*	*	*	*	*	*
.	.	4F	-cta	.	.	.	.
=11	=11	=11	=11	=11	=11	=11	=11
*	*	*col	*	*	*	*	*
4GG	E-	2G	E-	4d	E-	4B-y	mo-
8CL	.	.	.	8cL	.	8e-L	.
8BB-y	.	.	.	8d	.	8d	.
8C	.	2G	-va	8c	.	8e-	.
8BB-yJ	.	.	.	8dJ	.	8dJ	.
4GG	.	.	.	4B-y	.	2d	.
2AA	-va	2E	mo-	2A	-va	.	.
*	*	*Xcol	*	*	*	*	*
.	.	.	.	.	.	4c#i	-ri-
=12	=12	=12	=12	=12	=12	=12	=12
4BB-y	mo-	4D	-ri-	4F	mo-	2.d	-en-
4GG	.	4G	.	4B-y	.	.	.
4D	-ri-	4F	-en-	4A	-ri-	.	.
4BB-y	.	8GL	.	2B-y	-en-	2d	-ti-
.	.	8F	.	.	.	.	.
2GG	-en-	8G	.	.	.	.	.
.	.	8DJ	.	.	.	.	.
.	.	4G	.	4G	-ti-	4B-y	.
!!LO:LB:g=original
=13	=13	=13	=13	=13	=13	=13	=13
2D	-ti-	2.F	-ti-	4A	-um,	2.A	-um,
.	.	.	.	2d	.	.	.
4D	-um,	.	.	.	.	.	.
4.D	Ma-	2.F	-um,	2r	.	2r	.
.	.	.	.	.	.	.	.
8C	.	.	.	.	.	.	.
4AA	.	.	.	4r	.	4f	Ma-
=14	=14	=14	=14	=14	=14	=14	=14
2GG	-ri-	2r	.	4.d	Ma-	8gL	.
.	.	.	.	.	.	8a	.
.	.	.	.	.	.	8b-y	.
.	.	.	.	8e	.	8ccJ	.
4D	.	4F	Ma-	4f	.	4a	.
4BB-y	.	8GL	.	2.d	-ri-	2g	-ri-
.	.	8AJ	.	.	.	.	.
4GG	.	8B-L	.	.	.	.	.
.	.	8cJ	.	.	.	.	.
4D	.	4A	.	.	.	4f	.
=15	=15	=15	=15	=15	=15	=15	=15
2E-i	-a	2G	-ri-	4.B-y	-a	2g	-a
.	.	.	.	8c	.	.	.
4D	.	4F	.	4d	.	4a	.
2r	.	2G	-a	4.d	vi-	4b-y	vi-
.	.	.	.	.	.	4dd	.
.	.	.	.	8e	.	.	.
4r	.	4A	.	4f	.	4cc	.
=16	=16	=16	=16	=16	=16	=16	=16
4.G	vi-	4G	vi-	4g	-ven-	4.b-y	-ven-
.	.	4B-y	.	4d	.	.	.
8F	.	.	.	.	.	8a	.
4E	.	4c	.	4e	.	4g	.
*col	*	*	*	*	*	*	*
4D	-ven-	4d	-ven-	4f	.	4f	.
4G	.	4B-y	.	8dL	.	2b-y	.
.	.	.	.	8eJ	.	.	.
[4F	.	[4c	.	[4f	.	.	.
!!LO:PB:g=original
=17	=17	=17	=17	=17	=17	=17	=17
4F]	.	4c]	.	4f]	.	4a	.
4G	.	4B-y	.	4d	.	4.g	.
4E	.	4c	.	4e	.	.	.
*Xcol	*	*	*	*	*	*	*
.	.	.	.	.	.	8f	.
4F	.	4A	.	2c	.	2f	.
2C	-ti-	2G	-ti-	.	.	.	.
.	.	.	.	4c	-ti-	4e	-ti-
=18	=18	=18	=18	=18	=18	=18	=18
2D	-um	2.F	-um	4A	-um	4f	-um
.	.	.	.	8FL	.	4r	.
.	.	.	.	8GJ	.	.	.
4D	ma-	.	.	4A	.	4f	ma-
4BB-y	.	2r	.	4.B-y	ma-	8gL	.
.	.	.	.	.	.	8a	.
4GG	.	.	.	.	.	8b-y	.
.	.	.	.	16ALL	.	8ccJ	.
.	.	.	.	16GJJ	.	.	.
4D	.	4F	ma-	4F	.	4a	.
=19	=19	=19	=19	=19	=19	=19	=19
2GG	-ter	8GL	.	8B-yL	-ter	2g	-ter
.	.	8A	.	8cJ	.	.	.
.	.	8B-y	.	4d	.	.	.
.	.	8cJ	.	.	.	.	.
4D	.	4A	.	4r	.	4f	.
4E	be-	2G	-ter	4r	.	4g	be-
4G	.	.	.	8dL	be-	4b-y	.
.	.	.	.	8eJ	.	.	.
4D	-ne-	4F	.	4f	.	4a	-ne-
!!LO:LB:g=original
=20	=20	=20	=20	=20	=20	=20	=20
4B-y	-di-	4G	be-	4d	-ne-	2dd	-di-
4G	.	4B-y	.	4g	-di-	.	.
8AL	.	4A	-ne-	8eL	.	4cc	.
8FJ	.	.	.	8fJ	.	.	.
4G	.	2d	-di-	8dL	.	4b-y	.
.	.	.	.	8gJ	.	.	.
4D	.	.	.	4.f	.	4.a	.
4F	.	4c	.	.	.	.	.
.	.	.	.	8e	.	8g	.
=21	=21	=21	=21	=21	=21	=21	=21
4G	.	4B-y	.	2d	.	2g	.
2D	.	2A	.	.	.	.	.
.	.	.	.	4d	.	4f#i	.
2.GG	-cta.	2.G	-cta.	2.d	-cta.	2g	-cta.
.	.	.	.	.	.	4r	.
=22	=22	=22	=22	=22	=22	=22	=22
1.r	.	2r	.	1.r	.	4.b-y	A-
.	.	.	.	.	.	8g	.
.	.	4r	.	.	.	4a	.
.	.	4.B-y	A-	.	.	8d	.
.	.	.	.	.	.	4g	.
.	.	8G	.	.	.	8e	.
.	.	4A	.	.	.	4f	.
=23	=23	=23	=23	=23	=23	=23	=23
1.r	.	8D	.	1.r	.	4.B-y	.
.	.	4G	.	.	.	.	.
.	.	8E	.	.	.	8G	.
.	.	4F	.	.	.	4A	-ve
.	.	8D	.	.	.	8r	.
.	.	4G	.	.	.	4b-y	vir-
.	.	8E	.	.	.	8g	.
.	.	4F	-ve	.	.	4a	.
!!LO:LB:g=original
=24	=24	=24	=24	=24	=24	=24	=24
1.r	.	4.B-y	vir-	1.r	.	8d	.
.	.	.	.	.	.	4g	.
.	.	8G	.	.	.	8e	.
.	.	4A	.	.	.	4.f	.
.	.	8D	.	.	.	.	.
.	.	4G	.	.	.	4e	.
.	.	8F	.	.	.	4d	.
.	.	4E	.	.	.	.	.
.	.	.	.	.	.	8c#i	.
=25	=25	=25	=25	=25	=25	=25	=25
1.r	.	4D	-go	1.r	.	4.d	-go
.	.	4.d	vir-	.	.	.	.
.	.	.	.	.	.	4.f	vir-
.	.	4.B-y	.	.	.	.	.
.	.	.	.	.	.	4d	.
.	.	4c	.	.	.	4e	.
.	.	4A	-gi-	.	.	4f	-gi-
=26	=26	=26	=26	=26	=26	=26	=26
4.GG	Im-	4G	-num,	4r	.	4g	-num,
.	.	4r	.	4.d	Im-	4r	.
8AAL	.	.	.	.	.	.	.
8BB-y	.	4r	.	.	.	4r	.
8CJ	.	.	.	4.B-y	-pe-	.	.
4D	-per-	2r	.	.	.	2r	.
4E	.	.	.	4c	-ra-	.	.
4F	.	4r	.	4A	.	4r	.
=27	=27	=27	=27	=27	=27	=27	=27
4.G	-ra-	1.r	.	8G	.	1.r	.
.	.	.	.	4B-y	.	.	.
8E	.	.	.	8c	.	.	.
4F	.	.	.	4A	.	.	.
4G	-trix	.	.	4.G	-trix	.	.
4.d	a-	.	.	.	.	.	.
.	.	.	.	8AL	.	.	.
.	.	.	.	8B-y	.	.	.
[8B-y	.	.	.	8cJ	.	.	.
!!LO:LB:g=original
=28	=28	=28	=28	=28	=28	=28	=28
4B-]	.	1.r	.	4d	a-	1.r	.
4c	.	.	.	4e	.	.	.
4A	.	.	.	4f	.	.	.
4G	.	.	.	4g	.	.	.
4A	.	.	.	8f	.	.	.
.	.	.	.	4e	.	.	.
8GL	.	.	.	.	.	.	.
[8FJ	.	.	.	8d	.	.	.
=29	=29	=29	=29	=29	=29	=29	=29
8F]	.	2r	.	2d	.	1.r	.
8DL	.	.	.	.	.	.	.
8F	.	.	.	.	.	.	.
8GJ	.	.	.	.	.	.	.
4E	-gmi-	4r	.	4c#i	-gmi-	.	.
4D	-num	4A	o-	2.d	-num	.	.
8GL	o-	8B-yL	.	.	.	.	.
8FJ	.	8AJ	.	.	.	.	.
4G	.	4B-y	-mni-	.	.	.	.
=30	=30	=30	=30	=30	=30	=30	=30
4.D	-mni-	4A	-um	2.d	o-	1.r	.
.	.	4r	.	.	.	.	.
8E	.	.	.	.	.	.	.
4F	-um	4A	san-	.	.	.	.
4.G	san-	4.B-y	-cto-	2d	-mni-	.	.
16FLL	.	16ALL	.	.	.	.	.
16EJJ	.	16GJJ	.	.	.	.	.
4G	.	4B-y	.	4d	-um	.	.
=31	=31	=31	=31	=31	=31	=31	=31
2D	-cto-	4.A	.	2f	san-	1.r	.
.	.	8F	.	.	.	.	.
4C	.	4A	.	4e	-cto-	.	.
4BB-y	.	4B-y	.	4d	.	.	.
8E-iL	.	4r	.	8cL	.	.	.
8DJ	.	.	.	8B-yJ	.	.	.
4C	.	4A	.	4c	.	.	.
!!LO:PB:g=original
=32	=32	=32	=32	=32	=32	=32	=32
4BB-y	-rum,	4.B-y	-rum,	2d	-rum,	1.r	.
4r	.	.	.	.	.	.	.
.	.	8A	.	.	.	.	.
4AA	re-	4F	.	4r	.	.	.
4GG	-gi-	4B-y	re-	2r	.	.	.
8CL	-na	8AL	-gi-	.	.	.	.
8BB-yJ	.	8GJ	.	.	.	.	.
4AA	cle-	4c	-na	4r	.	.	.
=33	=33	=33	=33	=33	=33	=33	=33
8GG	.	8B-y	.	1.r	.	1.r	.
4C	-men-	4A	cle-	.	.	.	.
8BB-y	.	4G	.	.	.	.	.
4AA	-ti-	.	.	.	.	.	.
.	.	8F	.	.	.	.	.
4GG	-e,	4G	-men-	.	.	.	.
4D	spes	8FL	.	.	.	.	.
.	.	8DJ	.	.	.	.	.
4C	.	4E	-ti-	.	.	.	.
=34	=34	=34	=34	=34	=34	=34	=34
4.BB-y	.	4D	-e,	1.r	.	1.r	.
.	.	4d	spes	.	.	.	.
8GG	.	.	.	.	.	.	.
4AA	.	4c	.	.	.	.	.
4GG	.	4.B-y	.	.	.	.	.
4G	mi-	.	.	.	.	.	.
.	.	8G	.	.	.	.	.
4F	.	4A	.	.	.	.	.
!!LO:LB:g=original
=35	=35	=35	=35	=35	=35	=35	=35
4.E	.	8G	.	1.r	.	1.r	.
.	.	4c	mi-	.	.	.	.
8C	.	8A	.	.	.	.	.
4D	.	4B-y	.	.	.	.	.
4C	.	4.A	.	.	.	.	.
4F	-se-	.	.	.	.	.	.
.	.	8F	.	.	.	.	.
4E	.	4G	.	.	.	.	.
=36	=36	=36	=36	=36	=36	=36	=36
4.D	.	8F	.	1.r	.	1.r	.
.	.	4B-y	-se-	.	.	.	.
8BB-y	.	8G	.	.	.	.	.
4C	.	4A	.	.	.	.	.
4BB-y	.	4.G	.	.	.	.	.
4E-j	-ri-	.	.	.	.	.	.
.	.	8E	.	.	.	.	.
4D	.	4F	.	.	.	.	.
=37	=37	=37	=37	=37	=37	=37	=37
4.C	.	8E	.	1.r	.	1.r	.
.	.	4A	-ri-	.	.	.	.
8AA	.	8F	.	.	.	.	.
4BB-y	.	4G	.	.	.	.	.
4AA	.	4.F	.	.	.	.	.
4D	-cor-	.	.	.	.	.	.
.	.	8D	.	.	.	.	.
4C	.	4E	.	.	.	.	.
=38	=38	=38	=38	=38	=38	=38	=38
4.BB-y	.	8D	.	2r	.	2r	.
.	.	4G	-cor-	.	.	.	.
.	.	.	.	.	.	.	.
8GG	.	8E	.	.	.	.	.
*	*	*	*	*	*edit	*	*
4AA	-di-	4F	.	4c	o-	4r	.
2GG	-e	4G	.	4.B-y	-mni-	4g	o-
.	.	8DL	.	.	.	4dd	-mni-
.	.	8EJ	.	8G	.	.	.
4r	.	4F	-di-	4A	-um	4cc	-um
!!LO:LB:g=original
=39	=39	=39	=39	=39	=39	=39	=39
4.G	o-	4G	-e	8G	.	4.b-y	re-
.	.	.	.	4d	re-	.	.
.	.	4r	.	.	.	.	.
8E	.	.	.	8eL	.	8g	.
4F	-mni-	4c	-o-	8c	.	4a	.
.	.	.	.	8fJ	.	.	.
8GL	.	8B-y	.	8dL	.	8g	.
8AJ	.	4A	-mni-	8cJ	.	4cc	.
4F	-um	.	.	4f	.	.	.
.	.	8F	.	.	.	8a	.
4r	.	4G	-um	8.dL	.	4b-y	.
.	.	.	.	16eJk	.	.	.
=40	=40	=40	=40	=40	=40	=40	=40
4D	re-	4.F	re-	8f	.	4.a	-o-
.	.	.	.	4d	.	.	.
4F	.	.	.	.	.	.	.
.	.	8D	.	16cLL	.	8b-y	.
.	.	.	.	16B-yJJ	.	.	.
4G	.	4E	.	4c	.	4g	.
8AL	-o-	8D	.	4.d	-o-	8f	.
8G	.	4d	-o-	.	.	4b-y	.
8D	.	.	.	.	.	.	.
8GJ	.	8B-y	.	8B-y	.	8g	.
4F	.	4c	.	4f	.	4a	.
=41	=41	=41	=41	=41	=41	=41	=41
4G	.	4B-y	.	2d	.	2g	.
2D	.	2A	.	.	.	.	.
.	.	.	.	4d	.	4f#i	.
2.GGl	rum.	2.Gl	rum.	2.dl	rum.	2.gl	rum.
*	*	*	*	*	*Xedit	*	*
==	==	==	==	==	==	==	==
*-	*-	*-	*-	*-	*-	*-	*-
!!!system-decoration: [*]
!!!RDF**kern: j = editorial accidental, optional, paren up
!!!RDF**kern: i = editorial accidental
!!!RDF**kern: l = terminal breve
!!!PTL: Gaspar van Weerbeke: Collected Works. IV. Motets
!!!PPR: American Institute of Musicology
!!!PC#: Corpus Mensurabilis Musicae 106/IV
!!!PDT: 2010
!!!PED: Pavanello, Agnese
!!!YEC: Copyright 2010, Pavanello, Agnese
!!!YEM: CC-BY-SA 4.0 (https://creativecommons.org/licenses/by-nc/4.0/legalcode)
!!!EED: Mair-Gruber, Roland
!!!EEV: 2021/08/09
